ui/StatusQ/src/assets/img/icons/tiny/settings.svg

<svg fill="none" height="17" viewBox="0 0 16 17" width="16" xmlns="http://www.w3.org/2000/svg"><path clip-rule="evenodd" d="m10.7803 3.5c.1562.00012.3005.07959.3786.20837l2.7825 4.58326c.0781.1289.0781.28784 0 .41674l-2.7825 4.58323c-.0781.1288-.2224.2083-.3786.2084h-5.56057c-.15625-.0001-.30054-.0796-.37867-.2084l-2.78247-4.58323c-.07812-.1289-.07812-.28784 0-.41674l2.78247-4.58326c.07813-.12878.22242-.20825.37867-.20837zm-4.7803 5c0 1.10461.89551 2 2 2 .53052 0 1.03906-.2107 1.41431-.58582.375-.375.58569-.88378.58569-1.41418 0-1.10461-.89551-2-2-2s-2 .89539-2 2z" fill="#000" fill-rule="evenodd"/></svg>

<svg width="16" height="17" viewBox="0 0 16 17" fill="none" xmlns="http://www.w3.org/2000/svg">
<path fill-rule="evenodd" clip-rule="evenodd" d="M10.7803 3.5C10.9365 3.50012 11.0808 3.57959 11.1589 3.70837L13.9414 8.29163C14.0195 8.42053 14.0195 8.57947 13.9414 8.70837L11.1589 13.2916C11.0808 13.4204 10.9365 13.4999 10.7803 13.5H5.21973C5.06348 13.4999 4.91919 13.4204 4.84106 13.2916L2.05859 8.70837C1.98047 8.57947 1.98047 8.42053 2.05859 8.29163L4.84106 3.70837C4.91919 3.57959 5.06348 3.50012 5.21973 3.5H10.7803ZM6 8.5C6 9.60461 6.89551 10.5 8 10.5C8.53052 10.5 9.03906 10.2893 9.41431 9.91418C9.78931 9.53918 10 9.0304 10 8.5C10 7.39539 9.10449 6.5 8 6.5C6.89551 6.5 6 7.39539 6 8.5Z" fill="black"/>
</svg>
